modules/feather/icons/arrow-right-circle.svg

<?xml version="1.0" encoding="UTF-8"?>
<svg width="24px" height="24px" viewBox="0 0 24 24" version="1.1" xmlns="http://www.w3.org/2000/svg" xmlns:xlink="http://www.w3.org/1999/xlink">
    <g id="arrow-right-circle" fill-rule="evenodd">
        <path d="M13.5857864,13 L8,13 C7.44771525,13 7,12.5522847 7,12 C7,11.4477153 7.44771525,11 8,11 L13.5857864,11 L11.2928932,8.70710678 C10.9023689,8.31658249 10.9023689,7.68341751 11.2928932,7.29289322 C11.6834175,6.90236893 12.3165825,6.90236893 12.7071068,7.29289322 L16.7071068,11.2928932 C17.0976311,11.6834175 17.0976311,12.3165825 16.7071068,12.7071068 L12.7071068,16.7071068 C12.3165825,17.0976311 11.6834175,17.0976311 11.2928932,16.7071068 C10.9023689,16.3165825 10.9023689,15.6834175 11.2928932,15.2928932 L13.5857864,13 Z M12,23 C5.92486775,23 1,18.0751322 1,12 C1,5.92486775 5.92486775,1 12,1 C18.0751322,1 23,5.92486775 23,12 C23,18.0751322 18.0751322,23 12,23 Z M12,21 C16.9705627,21 21,16.9705627 21,12 C21,7.02943725 16.9705627,3 12,3 C7.02943725,3 3,7.02943725 3,12 C3,16.9705627 7.02943725,21 12,21 Z" id="Combined-Shape" fill="#000000" fill-rule="nonzero"></path>
    </g>
</svg>

<svg width="24" height="24" viewBox="0 0 24 24" xmlns="http://www.w3.org/2000/svg"><path d="M13.586 13H8a1 1 0 0 1 0-2h5.586l-2.293-2.293a1 1 0 1 1 1.414-1.414l4 4a1 1 0 0 1 0 1.414l-4 4a1 1 0 0 1-1.414-1.414L13.586 13zM12 23C5.925 23 1 18.075 1 12S5.925 1 12 1s11 4.925 11 11-4.925 11-11 11zm0-2a9 9 0 1 0 0-18 9 9 0 0 0 0 18z" fill-rule="nonzero"/></svg>
